public/svgs/twin/mobile/title-page.svg

<svg width="335" height="270" viewBox="0 0 335 270" fill="none" xmlns="http://www.w3.org/2000/svg">
<path d="M4.93 46V5.98H20.3C30.74 5.98 35.96 11.2193 35.96 21.698V30.282C35.96 40.7607 30.74 46 20.3 46H4.93ZM12.006 39.562H20.706C26.158 39.562 28.884 36.836 28.884 31.384V20.596C28.884 15.144 26.158 12.418 20.706 12.418H12.006V39.562ZM44.6351 46V5.98H51.7111V46H44.6351ZM60.9906 36.546V15.434C60.9906 9.13133 64.142 5.98 70.4446 5.98H87.4386L90.8606 8.648V12.418H70.6186C68.9173 12.418 68.0666 13.2493 68.0666 14.912V37.068C68.0666 38.7307 68.9173 39.562 70.6186 39.562H84.9446V28.484H76.4766V22.046H92.0206V46H70.4446C64.142 46 60.9906 42.8487 60.9906 36.546ZM100.709 46V5.98H107.785V46H100.709ZM114.107 12.418V5.98H146.413V12.418H133.827V46H126.693V12.418H114.107ZM146.045 44.608L158.399 5.98H169.419L181.715 44.608L180.845 46H174.871L172.145 37.184H155.615L152.831 46H146.973L146.045 44.608ZM157.587 30.746H170.231L164.431 12.418H163.329L157.587 30.746ZM187.766 46V5.98H194.842V39.562H212.938V46H187.766ZM1.392 70.418V63.98H33.698V70.418H21.112V104H13.978V70.418H1.392ZM36.7992 65.372L37.7852 63.98H43.5852L50.7192 97.562H51.3572L58.9552 68.04H65.9732L73.5132 97.562H74.2092L81.3432 63.98H87.1432L88.1292 65.372L79.8352 104H68.4092L62.4352 80.452L56.5192 104H45.1512L36.7992 65.372ZM94.762 104V63.98H101.838V104H94.762ZM111.698 104V63.98H119.412L137.16 92.516V63.98H144.236V104H136.58L118.774 75.464V104H111.698Z" fill="#BB1212"/>
<path d="M4.25 160V125.5H20.35C25.7833 125.5 28.5 128.217 28.5 133.65V136.8C28.5 137.933 28.1667 138.9 27.5 139.7L25.75 141.8L27.85 143.55C28.95 144.45 29.5 145.783 29.5 147.55V151.85C29.5 157.283 26.7833 160 21.35 160H4.25ZM10.35 154.45H21.2C22.6667 154.45 23.4 153.733 23.4 152.3V147.05C23.4 145.617 22.6667 144.9 21.2 144.9H10.35V154.45ZM10.35 139.35H20.2C21.6667 139.35 22.4 138.617 22.4 137.15V133.2C22.4 131.767 21.6667 131.05 20.2 131.05H10.35V139.35ZM36.7207 160V125.5H42.8207V160H36.7207ZM50.8203 151.85V133.65C50.8203 128.217 53.537 125.5 58.9703 125.5H70.4203C75.8536 125.5 78.5703 128.217 78.5703 133.65V151.85C78.5703 157.283 75.8536 160 70.4203 160H58.9703C53.537 160 50.8203 157.283 50.8203 151.85ZM56.9203 152.3C56.9203 153.733 57.6536 154.45 59.1203 154.45H70.2703C71.737 154.45 72.4703 153.733 72.4703 152.3V133.2C72.4703 131.767 71.737 131.05 70.2703 131.05H59.1203C57.6536 131.05 56.9203 131.767 56.9203 133.2V152.3ZM86.5742 160V125.5H94.0742L104.424 147.6L114.774 125.5H122.274V160H116.124V135.9L107.024 155.3H101.774L92.6742 135.9V160H86.5742ZM127.464 158.8L138.114 125.5H147.614L158.214 158.8L157.464 160H152.314L149.964 152.4H135.714L133.314 160H128.264L127.464 158.8ZM137.414 146.85H148.314L143.314 131.05H142.364L137.414 146.85ZM163.43 160V125.5H180.03C185.463 125.5 188.18 128.217 188.18 133.65V139.3C188.18 143.5 186.513 146.05 183.18 146.95L189.18 158.7L188.43 160H183.23L176.83 147.4H169.53V160H163.43ZM169.53 141.85H179.88C181.346 141.85 182.08 141.117 182.08 139.65V133.2C182.08 131.767 181.346 131.05 179.88 131.05H169.53V141.85ZM195.656 160V125.5H201.756V140.6L215.306 125.5H221.006L221.606 126.75L210.006 139.7L222.806 158.75L222.206 160H216.606L206.056 144.15L201.756 148.75V160H195.656ZM228.518 160V125.5H251.718V131.05H234.618V139.35H250.218V144.9H234.618V154.45H251.718V160H228.518ZM258.449 160V125.5H275.049C280.483 125.5 283.199 128.217 283.199 133.65V139.3C283.199 143.5 281.533 146.05 278.199 146.95L284.199 158.7L283.449 160H278.249L271.849 147.4H264.549V160H258.449ZM264.549 141.85H274.899C276.366 141.85 277.099 141.117 277.099 139.65V133.2C277.099 131.767 276.366 131.05 274.899 131.05H264.549V141.85ZM0.95 176.7L1.75 175.5H7.05L15.6 204.45H16.55L25.1 175.5H30.45L31.2 176.7L21 210H11.1L0.95 176.7ZM36.3789 210V175.5H42.4789V210H36.3789ZM49.4785 207.7V204.45H64.9285C66.3952 204.45 67.1285 203.733 67.1285 202.3V198.5C67.1285 197.233 66.5618 196.483 65.4285 196.25L55.2785 194.2C51.4118 193.433 49.4785 190.833 49.4785 186.4V183.65C49.4785 178.217 52.1952 175.5 57.6285 175.5H69.2785L72.2285 177.8V181.05H57.7785C56.3118 181.05 55.5785 181.767 55.5785 183.2V186.55C55.5785 187.817 56.1452 188.567 57.2785 188.8L67.4285 190.8C71.2952 191.6 73.2285 194.2 73.2285 198.6V201.85C73.2285 207.283 70.5119 210 65.0785 210H52.4285L49.4785 207.7ZM79.9266 201.85V175.5H86.0266V202.3C86.0266 203.733 86.7599 204.45 88.2266 204.45H98.3766C99.8432 204.45 100.577 203.733 100.577 202.3V175.5H106.677V201.85C106.677 207.283 103.96 210 98.5266 210H88.0766C82.6432 210 79.9266 207.283 79.9266 201.85ZM111.595 208.8L122.245 175.5H131.745L142.345 208.8L141.595 210H136.445L134.095 202.4H119.845L117.445 210H112.395L111.595 208.8ZM121.545 196.85H132.445L127.445 181.05H126.495L121.545 196.85ZM147.561 210V175.5H153.661V204.45H169.261V210H147.561ZM174.709 210V175.5H180.809V210H174.709ZM187.309 210V205.25L204.859 181.05H187.809V175.5H212.559V180.25L195.009 204.45H213.059V210H187.309ZM216.282 208.8L226.932 175.5H236.432L247.032 208.8L246.282 210H241.132L238.782 202.4H224.532L222.132 210H217.082L216.282 208.8ZM226.232 196.85H237.132L232.132 181.05H231.182L226.232 196.85ZM246.708 181.05V175.5H274.558V181.05H263.708V210H257.558V181.05H246.708ZM4.25 260V225.5H10.35V260H4.25ZM18.3496 251.85V233.65C18.3496 228.217 21.0663 225.5 26.4996 225.5H37.9496C43.3829 225.5 46.0996 228.217 46.0996 233.65V251.85C46.0996 257.283 43.3829 260 37.9496 260H26.4996C21.0663 260 18.3496 257.283 18.3496 251.85ZM24.4496 252.3C24.4496 253.733 25.1829 254.45 26.6496 254.45H37.7996C39.2663 254.45 39.9996 253.733 39.9996 252.3V233.2C39.9996 231.767 39.2663 231.05 37.7996 231.05H26.6496C25.1829 231.05 24.4496 231.767 24.4496 233.2V252.3ZM54.1035 260V225.5H60.7535L76.0535 250.1V225.5H82.1535V260H75.5535L60.2035 235.4V260H54.1035Z" fill="black"/>
</svg>

<svg xmlns="http://www.w3.org/2000/svg" width="335" height="270" fill="none" viewBox="0 0 335 270"><path fill="#bb1212" d="M4.93 46V5.98H20.3q15.66 0 15.66 15.718v8.584Q35.96 46 20.3 46zm7.076-6.438h8.7q8.178 0 8.178-8.178V20.596q0-8.178-8.178-8.178h-8.7zM44.636 46V5.98h7.075V46zm16.355-9.454V15.434q0-9.454 9.454-9.454h16.994l3.422 2.668v3.77H70.619q-2.553 0-2.552 2.494v22.156q0 2.494 2.552 2.494h14.326V28.484h-8.468v-6.438H92.02V46H70.445q-9.454 0-9.454-9.454M100.709 46V5.98h7.076V46zm13.398-33.582V5.98h32.306v6.438h-12.586V46h-7.134V12.418zm31.938 32.19L158.399 5.98h11.02l12.296 38.628-.87 1.392h-5.974l-2.726-8.816h-16.53L152.831 46h-5.858zm11.542-13.862h12.644l-5.8-18.328h-1.102zM187.766 46V5.98h7.076v33.582h18.096V46zM1.392 70.418V63.98h32.306v6.438H21.112V104h-7.134V70.418zm35.407-5.046.986-1.392h5.8l7.134 33.582h.638l7.598-29.522h7.018l7.54 29.522h.696l7.134-33.582h5.8l.986 1.392L79.835 104H68.41l-5.974-23.548L56.52 104H45.151zM94.762 104V63.98h7.076V104zm16.936 0V63.98h7.714l17.748 28.536V63.98h7.076V104h-7.656l-17.806-28.536V104z"/><path fill="#000" d="M4.25 160v-34.5h16.1q8.15 0 8.15 8.15v3.15q0 1.7-1 2.9l-1.75 2.1 2.1 1.75q1.65 1.35 1.65 4v4.3q0 8.15-8.15 8.15zm6.1-5.55H21.2q2.2 0 2.2-2.15v-5.25q0-2.15-2.2-2.15H10.35zm0-15.1h9.85q2.2 0 2.2-2.2v-3.95q0-2.15-2.2-2.15h-9.85zM36.72 160v-34.5h6.1V160zm14.1-8.15v-18.2q0-8.15 8.15-8.15h11.45q8.15 0 8.15 8.15v18.2q0 8.15-8.15 8.15H58.97q-8.15 0-8.15-8.15m6.1.45q0 2.15 2.2 2.15h11.15q2.2 0 2.2-2.15v-19.1q0-2.15-2.2-2.15H59.12q-2.2 0-2.2 2.15zm29.654 7.7v-34.5h7.5l10.35 22.1 10.35-22.1h7.5V160h-6.15v-24.1l-9.1 19.4h-5.25l-9.1-19.4V160zm40.89-1.2 10.65-33.3h9.5l10.6 33.3-.75 1.2h-5.15l-2.35-7.6h-14.25l-2.4 7.6h-5.05zm9.95-11.95h10.9l-5-15.8h-.95zM163.43 160v-34.5h16.6q8.15 0 8.15 8.15v5.65q0 6.3-5 7.65l6 11.75-.75 1.3h-5.2l-6.4-12.6h-7.3V160zm6.1-18.15h10.35q2.2 0 2.2-2.2v-6.45q0-2.15-2.2-2.15h-10.35zM195.656 160v-34.5h6.1v15.1l13.55-15.1h5.7l.6 1.25-11.6 12.95 12.8 19.05-.6 1.25h-5.6l-10.55-15.85-4.3 4.6V160zm32.862 0v-34.5h23.2v5.55h-17.1v8.3h15.6v5.55h-15.6v9.55h17.1V160zm29.931 0v-34.5h16.6q8.15 0 8.15 8.15v5.65q0 6.3-5 7.65l6 11.75-.75 1.3h-5.2l-6.4-12.6h-7.3V160zm6.1-18.15h10.35q2.2 0 2.2-2.2v-6.45q0-2.15-2.2-2.15h-10.35zM.95 176.7l.8-1.2h5.3l8.55 28.95h.95l8.55-28.95h5.35l.75 1.2L21 210h-9.9zM36.379 210v-34.5h6.1V210zm13.1-2.3v-3.25h15.45q2.2 0 2.2-2.15v-3.8q0-1.9-1.7-2.25l-10.15-2.05q-5.8-1.15-5.8-7.8v-2.75q0-8.15 8.15-8.15h11.65l2.95 2.3v3.25h-14.45q-2.2 0-2.2 2.15v3.35q0 1.9 1.7 2.25l10.15 2q5.8 1.2 5.8 7.8v3.25q0 8.15-8.15 8.15h-12.65zm30.448-5.85V175.5h6.1v26.8q0 2.15 2.2 2.15h10.15q2.2 0 2.2-2.15v-26.8h6.1v26.35q0 8.15-8.15 8.15h-10.45q-8.15 0-8.15-8.15m31.668 6.95 10.65-33.3h9.5l10.6 33.3-.75 1.2h-5.15l-2.35-7.6h-14.25l-2.4 7.6h-5.05zm9.95-11.95h10.9l-5-15.8h-.95zM147.561 210v-34.5h6.1v28.95h15.6V210zm27.148 0v-34.5h6.1V210zm12.6 0v-4.75l17.55-24.2h-17.05v-5.55h24.75v4.75l-17.55 24.2h18.05V210zm28.973-1.2 10.65-33.3h9.5l10.6 33.3-.75 1.2h-5.15l-2.35-7.6h-14.25l-2.4 7.6h-5.05zm9.95-11.95h10.9l-5-15.8h-.95zm20.476-15.8v-5.55h27.85v5.55h-10.85V210h-6.15v-28.95zM4.25 260v-34.5h6.1V260zm14.1-8.15v-18.2q0-8.15 8.15-8.15h11.45q8.15 0 8.15 8.15v18.2q0 8.15-8.15 8.15H26.5q-8.15 0-8.15-8.15m6.1.45q0 2.15 2.2 2.15H37.8q2.2 0 2.2-2.15v-19.1q0-2.15-2.2-2.15H26.65q-2.2 0-2.2 2.15zm29.653 7.7v-34.5h6.65l15.3 24.6v-24.6h6.1V260h-6.6l-15.35-24.6V260z"/></svg>
